configs/network-logos/reya-cronos-logo-light.svg

<svg width="96" height="24" viewBox="0 0 96 24" fill="none" xmlns="http://www.w3.org/2000/svg">
<g clip-path="url(#clip0_11231_6401)">
<g clip-path="url(#clip1_11231_6401)">
<path d="M4.64353 14.8728L2.81379 11.3634V4.18918L0.651367 0.648682H9.353C14.5303 0.648682 17.5557 3.25747 17.5557 7.72969C17.5557 10.7733 16.121 12.9473 13.4387 14.0343L17.774 23.3514H13.4076L9.5402 14.8728H4.64353ZM2.81379 4.18918V11.3634H9.353C11.8793 11.3634 13.3764 10.0279 13.3764 7.72969C13.3764 5.46252 11.8793 4.18918 9.353 4.18918H5.0022C3.30309 4.18918 4.5129 4.18918 2.81379 4.18918Z" fill="#070707"/>
<path d="M78.9984 23.247H74.8694L83.0656 0.648682H87.132L95.3282 23.247H91.1373L89.3052 18.0225L88.1571 14.6838L80.8301 18.0225L78.9984 23.247ZM84.5866 7.388L82.0095 14.6838L80.8301 18.0225L88.1571 14.6838L85.5491 7.388C85.3626 6.80063 85.1452 6.12052 85.0833 5.6568C84.9905 6.0896 84.804 6.76972 84.5866 7.388Z" fill="#070707"/>
<path d="M59.1897 14.3438L51.5215 0.648682H55.961L60.4315 8.87193C60.7731 9.49017 60.9903 9.98484 61.2387 10.5413C61.5181 9.98484 61.6423 9.61382 62.0459 8.87193L66.4854 0.648682H70.8007L63.1635 14.3438V23.247H59.1897V14.3438Z" fill="#070707"/>
<path d="M43.2083 23.247L31.2117 22.8684L29.1138 19.5992V13.6018H31.2117L29.1138 10.1085V4.29657H31.2117L29.1138 0.648682H43.2083V4.29657H29.1138V10.1085H42.1528V13.6018H29.1138V19.5992H43.2083V23.247Z" fill="#070707"/>
</g>
</g>
<defs>
<clipPath id="clip0_11231_6401">
<rect width="96" height="24" fill="white"/>
</clipPath>
<clipPath id="clip1_11231_6401">
<rect width="96" height="24" fill="white"/>
</clipPath>
</defs>
</svg>

<svg xmlns="http://www.w3.org/2000/svg" fill="none" viewBox="0 0 96 24">
  <g clip-path="url(#reya-cronos-logo-light_svg__a)">
    <g fill="#070707" clip-path="url(#reya-cronos-logo-light_svg__b)">
      <path d="m4.644 14.873-1.83-3.51V4.19L.65.65h8.702c5.177 0 8.203 2.608 8.203 7.08 0 3.044-1.435 5.218-4.117 6.305l4.335 9.317h-4.366L9.54 14.873H4.644ZM2.814 4.189v7.174h6.539c2.526 0 4.023-1.335 4.023-3.633 0-2.267-1.497-3.54-4.023-3.54h-6.54Zm76.184 19.058H74.87L83.066.649h4.066l8.196 22.598h-4.19l-1.833-5.224-1.148-3.34-7.327 3.34-1.832 5.224Zm5.589-15.859-2.578 7.296-1.179 3.339 7.327-3.34-2.608-7.295c-.186-.587-.404-1.267-.466-1.731a15.727 15.727 0 0 1-.496 1.731ZM59.19 14.344 51.522.649h4.439l4.47 8.223c.342.618.56 1.113.808 1.67.28-.557.403-.928.807-1.67l4.44-8.223H70.8l-7.638 13.695v8.903H59.19v-8.903Zm-15.982 8.903-11.996-.379-2.098-3.269v-5.997h2.098l-2.098-3.494V4.297h2.098L29.114.649h14.094v3.648H29.114v5.811h13.039v3.494h-13.04v5.997h14.095v3.648Z"/>
    </g>
  </g>
  <defs>
    <clipPath id="reya-cronos-logo-light_svg__a">
      <path fill="#fff" d="M0 0h96v24H0z"/>
    </clipPath>
    <clipPath id="reya-cronos-logo-light_svg__b">
      <path fill="#fff" d="M0 0h96v24H0z"/>
    </clipPath>
  </defs>
</svg>
